src/lib/packages/icons/src/assets/line/radiation.svg

<svg width="24" height="24" viewBox="0 0 24 24" fill="none" xmlns="http://www.w3.org/2000/svg">
<path d="M14.463 14.621C14.362 14.443 14.193 14.3129 13.995 14.2629C13.796 14.2129 13.5859 14.2449 13.4129 14.3529C12.5809 14.8719 11.419 14.8719 10.587 14.3529C10.414 14.2449 10.205 14.2119 10.005 14.2629C9.80697 14.3129 9.63795 14.443 9.53695 14.621L7.09799 18.9418C6.92799 19.2428 6.88695 19.605 6.98495 19.934C7.08195 20.257 7.29791 20.5199 7.59591 20.6759C8.97491 21.3879 10.457 21.7499 12 21.7499C13.543 21.7499 15.025 21.3889 16.404 20.6759C16.404 20.6759 16.405 20.676 16.405 20.675C16.702 20.521 16.919 20.258 17.015 19.934C17.113 19.605 17.0719 19.2428 16.9019 18.9408L14.463 14.621ZM8.52499 19.4628L10.495 15.974C11.444 16.337 12.556 16.337 13.505 15.974L15.4749 19.4628C13.2829 20.5068 10.715 20.5068 8.52499 19.4628ZM17.365 3.45597C17.082 3.26697 16.7289 3.20485 16.3979 3.28385C16.0589 3.36485 15.7669 3.58681 15.5959 3.88981L12.967 8.52995C12.866 8.70595 12.843 8.91603 12.9 9.11003C12.957 9.30503 13.09 9.46791 13.269 9.56291C14.137 10.0219 14.687 10.866 14.74 11.821C14.762 12.218 15.111 12.529 15.51 12.529H20.489C20.839 12.529 21.177 12.3828 21.415 12.1278C21.647 11.8788 21.769 11.543 21.748 11.205C21.569 8.075 19.933 5.17897 17.365 3.45597ZM16.136 11.0299C15.917 10.0979 15.379 9.25785 14.619 8.65885L16.766 4.86686C18.739 6.29386 20.0149 8.56295 20.2309 11.0299H16.136ZM9.25997 11.821C9.31297 10.866 9.86292 10.0219 10.7309 9.56291C10.9099 9.46791 11.0429 9.30503 11.0999 9.11003C11.1569 8.91603 11.1329 8.70595 11.0329 8.52995L8.40499 3.89201C8.23299 3.58701 7.94102 3.36485 7.60202 3.28385C7.27302 3.20285 6.91802 3.26695 6.63302 3.45695C4.06802 5.17895 2.43002 8.07589 2.25302 11.1989C2.23002 11.5389 2.35093 11.8768 2.58493 12.1278C2.82293 12.3828 3.16095 12.529 3.51095 12.529H8.51095C8.90895 12.53 9.23698 12.219 9.25997 11.821ZM3.76901 11.0299C3.98501 8.56295 5.26197 6.29286 7.23397 4.86686L9.38095 8.65885C8.62095 9.25785 8.08298 10.0979 7.86398 11.0299H3.76901ZM12 10.7499C12.69 10.7499 13.25 11.3099 13.25 11.9999C13.25 12.6899 12.69 13.2499 12 13.2499C11.31 13.2499 10.75 12.6899 10.75 11.9999C10.75 11.3099 11.31 10.7499 12 10.7499Z" fill="currentColor"/>
</svg>

<svg xmlns="http://www.w3.org/2000/svg" width="24" height="24" fill="none"><path fill="currentColor" d="M14.463 14.621a.75.75 0 0 0-1.05-.268c-.832.519-1.994.519-2.826 0a.747.747 0 0 0-1.05.268l-2.439 4.32c-.17.302-.211.664-.113.993.097.323.313.586.61.742A9.513 9.513 0 0 0 12 21.75a9.5 9.5 0 0 0 4.404-1.074l.001-.001c.297-.154.514-.417.61-.741a1.287 1.287 0 0 0-.113-.993l-2.439-4.32Zm-5.938 4.842 1.97-3.489a4.296 4.296 0 0 0 3.01 0l1.97 3.489a8.102 8.102 0 0 1-6.95 0Zm8.84-16.007a1.232 1.232 0 0 0-.967-.172 1.262 1.262 0 0 0-.802.606l-2.629 4.64a.75.75 0 0 0 .302 1.033c.868.459 1.418 1.303 1.471 2.258.022.397.371.708.77.708h4.979c.35 0 .688-.146.926-.401.232-.25.354-.585.333-.923-.179-3.13-1.815-6.026-4.383-7.749Zm-1.229 7.574a4.277 4.277 0 0 0-1.517-2.371l2.147-3.792c1.973 1.427 3.249 3.696 3.465 6.163h-4.095Zm-6.876.791c.053-.955.603-1.8 1.47-2.258a.75.75 0 0 0 .303-1.033L8.405 3.892a1.263 1.263 0 0 0-.803-.608 1.228 1.228 0 0 0-.969.173c-2.565 1.722-4.203 4.619-4.38 7.742-.023.34.098.678.332.929.238.255.576.401.926.401h5a.75.75 0 0 0 .749-.708Zm-5.491-.791c.216-2.467 1.493-4.737 3.465-6.163l2.147 3.792a4.277 4.277 0 0 0-1.517 2.37H3.769ZM12 10.75a1.25 1.25 0 1 1 0 2.5 1.25 1.25 0 0 1 0-2.5Z"/></svg>
